X: 57
T: Resjois toy terre de France / Rex pacificus
N: Derived from Bus3053-Resjois_toy_terre_de_France__Rex_pacificus.krn
C: Antoine Busnoys
%%abc-version 2.0
%%abcx-abcm2ps-target-version 5.9.1 (29 Sep 2008)
%%abc-creator hum2abc beta
%%abcx-conversion-date 2019/02/16 20:26:07
%%abc-edited-by Jesse Rodin
%%abc-edited-by Chris Gage 04-22-2015
%%abcx-initial-encoding-date 2016/02/08/
%%humdrum-veritas 2223447153
%%humdrum-veritas-data 2857180976
%%linebreak <none>
%%barnumbers 0
L: 1/4
M: 3/1
Q: 1/2=120
%%staves [1 2 3 4]
V: 1 clef=treble
V: 2 clef=treble-8
V: 3 clef=treble-8
V: 4 clef=treble-8
K: C
[V:1] G8F3G | 
[V:2] G4_B4A4- | 
[V:3] G8D4 | 
[V:4] d8d4 | 
[V:1] A2B2c4A2c2 | 
[V:2] A4A4F4 | 
[V:3] F6G2A4 | 
[V:4] c4A4c4 | 
[V:1] B2A3GG4^F2 | 
[V:2] z4z4A4 | 
[V:3] G2c4_B2A4 | 
[V:4] d2e3dd4c2 | 
[V:1] G4B8 | 
[V:2] _B2c2d4g4 | 
[V:3] G12 | 
[V:4] d4z4d4 | 
[V:1] c4c4d4- | 
[V:2] c8G4 | 
[V:3] z4A4_B4 | 
[V:4] e8d4 | 
[V:1] d2G2c2d2B4 | 
[V:2] z4g4g4 | 
[V:3] _B4G8 | 
[V:4] e4d6c2 | 
[V:1] c12 | 
[V:2] e8c4 | 
[V:3] C8C4 | 
[V:4] c8z4 | 
[V:1] z12 | 
[V:2] =B4G2A4=B2 | 
[V:3] G4E2F4E2 | 
[V:4] d4c4d2e2- | 
[V:1] z12 | 
[V:2] c2d=B2A=B2c3=B | 
[V:3] C2G3FG_BA4 | 
[V:4] e2e2d2g4^f2 | 
[V:1] z4c6d2 | 
[V:2] d4e3fg4 | 
[V:3] G4c8 | 
[V:4] g8e4 | 
[V:1] d4c6B2 | 
[V:2] f2a8a2 | 
[V:3] d4A8 | 
[V:4] f4e8 | 
[V:1] d4_B4c2A2 | 
[V:2] f4g4e2f2 | 
[V:3] _B4G4A2F2 | 
[V:4] d4d4c4 | 
[V:1] z2G2A2_BG2^FFE | 
[V:2] d2c2A2z2z2A2 | 
[V:3] G2E2F2G2A4 | 
[V:4] B4A2d4c2 | 
[V:1] G4A4F4 | 
[V:2] G4A8 | 
[V:3] G4D8 | 
[V:4] d12 | 
[V:1] z2G2A2B2G2d2- | 
[V:2] _B4A2G2d2_B2 | 
[V:3] G4F2G4_B2- | 
[V:4] d12- | 
[V:1] dBcd_B2AG^F3E | 
[V:2] G2F2_B4A4 | 
[V:3] B2A2G4D4 | 
[V:4] d12- | 
[V:1] G12 ||  
[V:2] G12 ||  
[V:3] G12 ||  
[V:4] d12 ||  
[V:1]  [K:C] [K:clef=treble][M:2/1]A8 | 
[V:2]  [K:C] [K:clef=treble-8][M:2/1]d8- | 
[V:3]  [K:C] [K:clef=treble-8][M:2/1]D8- | 
[V:4]  [K:C] [K:clef=treble-8][M:2/1]z8 | 
[V:1] F4G4 | 
[V:2] d4c2_B2 | 
[V:3] D4E4 | 
[V:4] z8 | 
[V:1] A8 | 
[V:2] A8 | 
[V:3] F8 | 
[V:4] z8 | 
[V:1] _B4B4 | 
[V:2] G4d4- | 
[V:3] G8 | 
[V:4] z8 | 
[V:1] A6d2- | 
[V:2] d2c2A2G2 | 
[V:3] F8 | 
[V:4] z8 | 
[V:1] d2c2_B2G2 | 
[V:2] _B2c2d4- | 
[V:3] G8 | 
[V:4] z8 | 
[V:1] A4F4 | 
[V:2] d8 | 
[V:3] D8 | 
[V:4] z8 | 
[V:1] D2E2D2G2- | 
[V:2] =B8 | 
[V:3] G8 | 
[V:4] z8 | 
[V:1] G2F2A4 | 
[V:2] c4A2=B2- | 
[V:3] A4F2G2- | 
[V:4] z8 | 
[V:1] D2E2F3D | 
[V:2] B2A4A2 | 
[V:3] G2A2D2F2 | 
[V:4] z8 | 
[V:1] E4F2E2 | 
[V:2] =B2c2A2=B2- | 
[V:3] E2A4G2 | 
[V:4] z8 | 
[V:1] F2D2B,2^C2 | 
[V:2] BAA2G3F | 
[V:3] A2F2E4 | 
[V:4] z8 | 
[V:1] D8 | 
[V:2] A8- | 
[V:3] D8- | 
[V:4] z8 | 
[V:1] z4F4 | 
[V:2] A8 | 
[V:3] D8 | 
[V:4] z8 | 
[V:1] E4A4 | 
[V:2] z8 | 
[V:3] A8 | 
[V:4] c8 | 
[V:1] G2G4F2 | 
[V:2] G8 | 
[V:3] _B8 | 
[V:4] d8 | 
[V:1] A8 | 
[V:2] c6d2 | 
[V:3] A8 | 
[V:4] e8 | 
[V:1] G4c4 | 
[V:2] e2f2g4- | 
[V:3] c8 | 
[V:4] e8 | 
[V:1] B4d4- | 
[V:2] g2f2g4 | 
[V:3] G8 | 
[V:4] d8 | 
[V:1] d2c2A4 | 
[V:2] z2a4d2 | 
[V:3] F4A2_B2 | 
[V:4] f8 | 
[V:1] G4c4- | 
[V:2] e2g2f2e2 | 
[V:3] c4A4 | 
[V:4] e4c4 | 
[V:1] c2B2B2A2 | 
[V:2] g8- | 
[V:3] G8 | 
[V:4] d8 | 
[V:1] c8 | 
[V:2] g8 | 
[V:3] z8 | 
[V:4] c8 | 
[V:1] z8 | 
[V:2] z4g4- | 
[V:3] (3:2:2c8G4 | 
[V:4] e6d2 | 
[V:1] z8 | 
[V:2] g2f2d4- | 
[V:3] c4_B4 | 
[V:4] e4g4 | 
[V:1] z8 | 
[V:2] d2c2c2_B2 | 
[V:3] A8 | 
[V:4] ^f6e2 | 
[V:1] B8 | 
[V:2] d4e4 | 
[V:3] G8 | 
[V:4] g8 | 
[V:1] A4d4- | 
[V:2] f6d2 | 
[V:3] d8 | 
[V:4] z8 | 
[V:1] d4d4- | 
[V:2] d8 | 
[V:3] G8 | 
[V:4] g8 | 
[V:1] d2c2B2A2 | 
[V:2] z4f4 | 
[V:3] D8 | 
[V:4] f4d4 | 
[V:1] c6B2 | 
[V:2] e4a4- | 
[V:3] A6G2 | 
[V:4] e8 | 
[V:1] d4e4 | 
[V:2] a2f2g4 | 
[V:3] F4E4 | 
[V:4] d4c4 | 
[V:1] f2d3cd2 | 
[V:2] a8- | 
[V:3] D8 | 
[V:4] d4f4 | 
[V:1] e2^c4B2 | 
[V:2] a8- | 
[V:3] A8 | 
[V:4] e8 | 
[V:1] d6cB | 
[V:2] a8 | 
[V:3] D8- | 
[V:4] d8- | 
[V:1] A4z4 | 
[V:2] z8 | 
[V:3] D8 | 
[V:4] d8- | 
[V:1] (3F6G2A4 | 
[V:2] (3A4_B4A4 | 
[V:3] (3D6E2F4 | 
[V:4] d8- | 
[V:1] (3:2:2_B4A8 | 
[V:2] (3G4A4F4 | 
[V:3] (3G4F4D4 | 
[V:4] d8- | 
[V:1] (3d6c2A4 | 
[V:2] (3:2:2G8A4 | 
[V:3] (3z4G4F4 | 
[V:4] d8- | 
[V:1] (3_B4G4F4 | 
[V:2] (3:2:2G8D4 | 
[V:3] (3:2:2_B8A4 | 
[V:4] d8- | 
[V:1] (3_B4A6G2 | 
[V:2] (3G4A4_B4- | 
[V:3] (3G4F4G4- | 
[V:4] d8- | 
[V:1] (3:2:2G8^F4 | 
[V:2] (3B2G2A8 | 
[V:3] (3:2:2G4D8 | 
[V:4] d8- | 
[V:1] G8 |]  
[V:2] G8 |]  
[V:3] G8 |]  
[V:4] d8 |]  



